X: 1
T: Reel of the Blackcocks
B: BSFC
R: reel
Z: 2005 John Chambers <jc:trillian.mit.edu>
M: C|
L: 1/8
K: D
   AB/c/ | "D"d2d2     A2A2  | "Bm"B2B2  "A"eddB | "D"d>dd2  A>AA2 | "A7"agfe   "D"d2 :|
|: AB/c/ | "D"d>dd2 "A"e>ee2 | "Bm"f>BB2 "A"dcBA | "D"ddd2 "A"eee2 | "F#7"fedc "Bm"B2 :|
